images/service-objects/2.svg

<svg width="142" height="73" viewBox="0 0 142 73" fill="none" xmlns="http://www.w3.org/2000/svg">
<g clip-path="url(#clip0_3831_374)">
<path d="M10.62 54.8856C14.0185 54.8856 16.1246 52.852 17.0211 49.7876L20.0702 50.37C19.0632 54.4484 15.7641 57.3154 10.6088 57.3154C3.69582 57.3154 0.134766 52.2231 0.134766 45.9419C0.134766 39.6607 3.6838 34.5683 10.6088 34.5683C15.7641 34.5683 19.0985 37.3303 20.0702 41.5603L17.0211 42.1427C16.3634 39.1136 14.3213 37.0214 10.62 37.0214C5.90695 37.0214 3.30006 40.9017 3.30006 45.9651C3.30006 51.0286 5.59291 54.8856 10.62 54.8856ZM24.1729 56.855V35.0159H27.1579V44.4201H38.8473V35.0167H41.8387V56.855H38.8481V46.996H27.1571V56.855H24.1729ZM46.8651 56.855V35.0159H49.8509V56.8542L46.8651 56.855ZM64.4019 54.8856C67.8003 54.8856 69.9065 52.852 70.803 49.7876L73.8521 50.37C72.8451 54.4484 69.546 57.3154 64.3907 57.3154C57.4777 57.3154 53.9167 52.2231 53.9167 45.9419C53.9167 39.6607 57.4657 34.5683 64.3907 34.5683C69.546 34.5683 72.8803 37.3303 73.8521 41.5603L70.803 42.1427C70.1461 39.1136 68.1032 37.0214 64.4019 37.0214C59.6888 37.0214 57.0827 40.9017 57.0827 45.9651C57.0827 51.0286 59.3748 54.8856 64.4019 54.8856ZM86.6591 35.0167L95.3875 56.855H92.1469L90.104 51.5468H79.9215L77.8498 56.855H74.8007L83.5988 35.0167H86.6591ZM80.9398 49.0006H89.1442L85.1409 38.3266L80.9398 49.0006ZM106.903 54.8856C109.073 54.8856 112.087 54.0641 113.251 52.4268V48.3485H106.559V45.7846H116.143V53.4577C114.543 55.6428 110.737 57.309 106.833 57.309C99.9203 57.309 95.7368 52.2167 95.7368 45.9362C95.7368 39.655 99.6063 34.5627 106.519 34.5627C111.675 34.5627 114.881 36.8931 115.829 41.0822L112.844 41.7817C111.808 38.2335 109.608 36.9925 106.443 36.9925C101.73 36.9925 98.8788 40.8728 98.8788 45.9362C98.8788 50.9989 101.876 54.8856 106.903 54.8856ZM130.388 34.5627C137.266 34.5627 141.136 39.6607 141.136 45.9362C141.136 52.211 137.266 57.3267 130.388 57.3267C123.511 57.3267 119.606 52.2343 119.606 45.9531C119.606 39.6719 123.47 34.5627 130.388 34.5627ZM130.388 54.8856C135.043 54.8856 137.993 50.9989 137.993 45.9362C137.993 40.8728 135.084 36.9917 130.388 36.9917C125.692 36.9917 122.748 40.8728 122.748 45.9362C122.748 50.9989 125.355 54.8856 130.388 54.8856ZM5.31812 71.893V72.5861H0.850982V66.5383H5.17952V67.2314H1.63049V69.1021H4.49295V69.7952H1.62969V71.893H5.31812ZM10.4622 69.8361H10.1362L8.52507 72.5748H7.66945L9.5369 69.3877L7.94264 66.5383H8.78704L10.149 68.9794H10.4694L11.8249 66.5383H12.6629L11.0511 69.3524L12.9073 72.5748H12.0284L10.463 69.8361H10.4622ZM20.5814 70.8613C20.4606 71.4131 20.1439 71.9023 19.69 72.2378C19.2362 72.5733 18.6761 72.7325 18.1139 72.6855C16.2576 72.6855 15.2402 71.3507 15.2402 69.557C15.2402 67.7616 16.2753 66.4276 18.1491 66.4276C18.6832 66.3789 19.2171 66.5222 19.6552 66.8317C20.0934 67.1413 20.4072 67.5969 20.5405 68.117H19.6793C19.5751 67.7957 19.3626 67.5206 19.0782 67.3389C18.7938 67.1571 18.4552 67.08 18.1203 67.1207C16.6766 67.1207 16.0309 68.2863 16.0309 69.5562C16.0309 70.8268 16.6654 71.9916 18.1139 71.9916C18.4755 72.0253 18.8375 71.9305 19.1365 71.7239C19.4354 71.5172 19.6522 71.2119 19.749 70.8613H20.5814ZM27.8317 71.8577V72.5748H23.5552V66.5383H24.3347V71.8577H27.8317ZM35.6059 66.5383V70.4185C35.6059 71.8464 34.7503 72.6855 33.156 72.6855C31.5617 72.6855 30.7061 71.8464 30.7061 70.4185V66.5383H31.4912V70.4129C31.4912 70.8549 31.6666 71.2788 31.9787 71.5913C32.2909 71.9039 32.7142 72.0795 33.1556 72.0795C33.597 72.0795 34.0204 71.9039 34.3325 71.5913C34.6446 71.2788 34.82 70.8549 34.82 70.4129V66.5383H35.6059ZM41.8371 69.1952C42.7688 69.3933 43.3969 69.8594 43.3969 70.8902C43.3969 71.9218 42.623 72.6847 41.0696 72.6847C39.6148 72.6847 38.6606 71.9387 38.5677 70.8902H39.3584C39.4986 71.7117 40.2493 71.9916 41.1049 71.9916C41.9597 71.9916 42.6286 71.6018 42.6286 70.9087C42.6286 70.2148 42.1808 70.0102 41.5759 69.877C41.2619 69.8129 40.6506 69.7022 40.3422 69.6324C39.4401 69.4575 38.8353 68.9794 38.8353 68.1002C38.8353 67.2202 39.6204 66.4276 41.0224 66.4276C42.3146 66.4276 43.1414 67.0854 43.2808 68.0593H42.466C42.3146 67.4761 41.8844 67.1207 40.9823 67.1207C40.2316 67.1207 39.6092 67.4528 39.6092 68.0825C39.6092 68.7114 40.1379 68.8575 40.6619 68.9617C40.9182 69.0083 41.4998 69.1254 41.8371 69.1944V69.1952ZM47.284 66.5383V72.5748H46.4989V66.5383H47.284ZM50.048 66.5383H50.8739L52.5723 71.7823H53.0098L54.7082 66.5383H55.5229L53.5329 72.5748H52.0324L50.048 66.5383ZM62.7035 71.893V72.5861H58.2284V66.5383H62.5633V67.2314H59.0143V69.1021H61.8655V69.7952H59.0135V71.893H62.7035ZM72.5791 66.5383C73.8938 66.5383 74.6268 67.1913 74.6268 68.2863C74.6524 68.6111 74.5743 68.9356 74.4038 69.2131C74.2334 69.4907 73.9793 69.7068 73.6783 69.8305L74.6677 72.5628H73.8585L72.9276 70.011C72.7594 70.019 72.5903 70.019 72.4213 70.011H70.5947V72.5395H69.8152V66.5391L72.5791 66.5383ZM72.4622 69.37C73.4692 69.37 73.8353 68.9625 73.8353 68.2975C73.8353 67.6333 73.4692 67.2146 72.4622 67.2146H70.5947V69.37H72.4622ZM82.2312 71.893V72.5861H77.7561V66.5383H82.091V67.2314H78.542V69.1021H81.3988V69.7952H78.542V71.893H82.2312ZM88.0915 69.1952C89.0224 69.3933 89.6505 69.8594 89.6505 70.8902C89.6505 71.9218 88.8766 72.6847 87.3232 72.6847C85.8684 72.6847 84.9142 71.9387 84.8213 70.8902H85.6128C85.7522 71.7117 86.5029 71.9916 87.3585 71.9916C88.2133 71.9916 88.883 71.6018 88.883 70.9087C88.883 70.2148 88.4408 70.0102 87.8296 69.877C87.5155 69.8129 86.9042 69.7022 86.6022 69.6324C85.6937 69.4575 85.0889 68.9794 85.0889 68.1002C85.0889 67.2202 85.8748 66.4276 87.2768 66.4276C88.5682 66.4276 89.395 67.0854 89.5344 68.0593H88.7429C88.5978 67.4761 88.1612 67.1207 87.2591 67.1207C86.5149 67.1207 85.886 67.4528 85.886 68.0825C85.886 68.7114 86.4156 68.8575 86.9395 68.9617C87.1838 69.0083 87.7711 69.1254 88.0915 69.1944V69.1952ZM93.5368 66.5383V72.5748H92.7517V66.5383H93.5368ZM99.2449 66.5383C101.154 66.5383 102.126 67.7384 102.126 69.5562C102.126 71.3747 101.154 72.5748 99.2449 72.5748H96.9176V66.5383H99.2449ZM99.2449 71.8809C100.758 71.8809 101.329 70.8148 101.329 69.5505C101.329 68.2863 100.746 67.2202 99.2449 67.2202H97.7036V71.8809H99.2449ZM109.609 71.893V72.5861H105.141V66.5383H109.47V67.2314H105.926V69.1021H108.783V69.7952H105.926V71.893H109.609ZM117.656 66.5383V72.5748H116.417L113.507 67.529H113.315V72.5748H112.547V66.5383H113.786L116.696 71.5841H116.888V66.5383H117.656ZM126.012 70.8613C125.891 71.4131 125.574 71.9021 125.12 72.2375C124.666 72.5729 124.106 72.7319 123.544 72.6847C121.688 72.6847 120.67 71.3507 120.67 69.5562C120.67 67.7616 121.706 66.4276 123.579 66.4276C124.113 66.3793 124.646 66.5229 125.083 66.8324C125.52 67.142 125.833 67.5974 125.965 68.117H125.115C125.01 67.7964 124.797 67.522 124.513 67.3405C124.229 67.1589 123.891 67.0812 123.556 67.1207C122.107 67.1207 121.461 68.2863 121.461 69.5562C121.461 70.8268 122.101 71.9916 123.544 71.9916C123.907 72.0252 124.269 71.9305 124.569 71.724C124.869 71.5175 125.087 71.2122 125.185 70.8613H126.012ZM133.437 71.893V72.5861H128.967V66.5383H133.303V67.2314H129.753V69.1021H132.61V69.7952H129.771V71.893H133.437ZM139.576 69.1952C140.507 69.3989 141.135 69.8594 141.135 70.8902C141.135 71.9218 140.361 72.6847 138.807 72.6847C137.353 72.6847 136.404 71.9387 136.311 70.8902H137.103C137.242 71.7117 137.993 71.9916 138.848 71.9916C139.703 71.9916 140.378 71.6018 140.378 70.9087C140.378 70.2148 139.931 70.0102 139.319 69.877C139.005 69.8129 138.4 69.7022 138.092 69.6324C137.184 69.4575 136.584 68.9794 136.584 68.1002C136.584 67.2202 137.37 66.4276 138.772 66.4276C140.064 66.4276 140.89 67.0854 141.03 68.0593H140.239C140.088 67.4761 139.657 67.1207 138.755 67.1207C138.005 67.1207 137.376 67.4528 137.376 68.0825C137.376 68.7114 137.911 68.8575 138.435 68.9617C138.674 69.0083 139.255 69.1254 139.576 69.1944V69.1952ZM113.932 20.8531H27.1627V23.0142H113.932V20.8531ZM111.529 4.64392L109.132 5.60495V18.8075H113.927V5.60495L111.529 4.64392ZM29.5605 4.64392L27.1627 5.62822V18.8075H31.9575V5.62822L29.5605 4.64392Z" fill="#282828"/>
<path d="M111.528 4.64392L109.131 5.62822V18.8075H113.926V5.62822L111.528 4.64392ZM54.6742 0L52.2764 0.990714V18.8075H57.0712V0.989912L54.6742 0ZM86.4144 0L84.0174 0.990714V18.8075H88.8178V0.989912L86.4144 0ZM42.1171 8.64609L33.2197 8.00593V18.8075H51.0146V7.87117L42.1171 8.64609ZM98.9193 8.64609L90.0227 8.00593V18.8075H107.817V7.87117L98.9193 8.64609ZM70.5463 4.85891L58.3394 3.98452V18.8075H82.7604V3.80482L70.5463 4.85891Z" fill="#282828"/>
</g>
<defs>
<clipPath id="clip0_3831_374">
<rect width="141" height="73" fill="white" transform="translate(0.134766)"/>
</clipPath>
</defs>
</svg>

<svg width="142" height="73" fill="none" xmlns="http://www.w3.org/2000/svg"><g clip-path="url(#clip0_3831_374)" fill="#282828"><path d="M10.62 54.886c3.399 0 5.505-2.034 6.401-5.098l3.05.582c-1.008 4.078-4.307 6.945-9.462 6.945-6.913 0-10.474-5.092-10.474-11.373s3.549-11.374 10.474-11.374c5.155 0 8.49 2.762 9.461 6.992l-3.049.583c-.658-3.03-2.7-5.122-6.401-5.122-4.713 0-7.32 3.88-7.32 8.944 0 5.064 2.293 8.92 7.32 8.92zm13.553 1.969v-21.84h2.985v9.405h11.69v-9.403h2.99v21.838h-2.99v-9.859h-11.69v9.859h-2.985zm22.692 0v-21.84h2.986v21.84h-2.986zm17.537-1.97c3.398 0 5.504-2.033 6.401-5.097l3.05.582c-1.008 4.078-4.307 6.945-9.462 6.945-6.913 0-10.474-5.092-10.474-11.373s3.549-11.374 10.474-11.374c5.155 0 8.49 2.762 9.461 6.992l-3.049.583c-.657-3.03-2.7-5.122-6.401-5.122-4.713 0-7.32 3.88-7.32 8.944 0 5.064 2.293 8.92 7.32 8.92zm22.257-19.868l8.728 21.838h-3.24l-2.043-5.308H79.921l-2.071 5.308H74.8l8.8-21.838h3.06zM80.94 49h8.205l-4.003-10.674L80.94 49zm25.964 5.885c2.17 0 5.184-.822 6.348-2.46v-4.078h-6.692v-2.563h9.584v7.673c-1.6 2.185-5.406 3.851-9.31 3.851-6.913 0-11.096-5.092-11.096-11.373s3.87-11.373 10.782-11.373c5.156 0 8.362 2.33 9.31 6.52l-2.985.699c-1.036-3.548-3.236-4.79-6.401-4.79-4.713 0-7.564 3.88-7.564 8.944 0 5.063 2.997 8.95 8.024 8.95zm23.485-20.323c6.878 0 10.748 5.098 10.748 11.373 0 6.275-3.87 11.39-10.748 11.39-6.877 0-10.782-5.092-10.782-11.373s3.864-11.39 10.782-11.39zm0 20.323c4.655 0 7.605-3.887 7.605-8.95 0-5.063-2.909-8.944-7.605-8.944-4.696 0-7.64 3.88-7.64 8.944 0 5.063 2.607 8.95 7.64 8.95zM5.318 71.893v.693H.851v-6.048H5.18v.693H1.63v1.871h2.863v.693H1.63v2.098h3.688zm5.144-2.057h-.326l-1.61 2.739h-.857l1.868-3.187-1.594-2.85h.844l1.362 2.441h.32l1.356-2.44h.838l-1.612 2.813 1.856 3.223h-.879l-1.565-2.739zm10.12 1.025a2.332 2.332 0 01-2.468 1.825c-1.856 0-2.874-1.335-2.874-3.129 0-1.795 1.035-3.13 2.91-3.13a2.255 2.255 0 012.39 1.69h-.86a1.456 1.456 0 00-1.56-.996c-1.443 0-2.09 1.165-2.09 2.435s.635 2.436 2.084 2.436a1.546 1.546 0 001.635-1.13h.832zm7.25.997v.717h-4.277v-6.037h.78v5.32h3.497zm7.774-5.32v3.88c0 1.428-.856 2.267-2.45 2.267-1.594 0-2.45-.839-2.45-2.267v-3.88h.785v3.875a1.668 1.668 0 001.665 1.666 1.663 1.663 0 001.664-1.666v-3.875h.786zm6.231 2.657c.932.198 1.56.664 1.56 1.695 0 1.032-.774 1.795-2.327 1.795-1.455 0-2.41-.746-2.502-1.795h.79c.14.822.891 1.102 1.747 1.102.855 0 1.524-.39 1.524-1.083 0-.694-.448-.899-1.053-1.032-.314-.064-.925-.175-1.234-.245-.902-.175-1.507-.653-1.507-1.532 0-.88.785-1.672 2.187-1.672 1.293 0 2.12.657 2.259 1.631h-.815c-.151-.583-.582-.938-1.484-.938-.75 0-1.373.332-1.373.962 0 .628.529.775 1.053.879.256.046.838.163 1.175.232v.001zm5.447-2.657v6.037h-.785v-6.037h.785zm2.764 0h.826l1.698 5.244h.438l1.698-5.244h.815l-1.99 6.037h-1.5l-1.985-6.037zm12.655 5.355v.693h-4.475v-6.048h4.335v.693h-3.549v1.871h2.851v.693h-2.852v2.098h3.69zm9.876-5.355c1.315 0 2.048.653 2.048 1.748a1.54 1.54 0 01-.949 1.544l.99 2.733h-.81l-.93-2.552a5.343 5.343 0 01-.507 0h-1.826v2.529h-.78v-6l2.764-.002zm-.117 2.832c1.007 0 1.373-.407 1.373-1.073 0-.664-.366-1.082-1.373-1.082h-1.867v2.155h1.867zm9.77 2.523v.693h-4.476v-6.048h4.335v.693h-3.549v1.871h2.857v.693h-2.857v2.098h3.69zm5.86-2.698c.93.198 1.558.664 1.558 1.695 0 1.032-.773 1.795-2.327 1.795-1.455 0-2.409-.746-2.502-1.795h.792c.14.822.89 1.102 1.746 1.102.854 0 1.524-.39 1.524-1.083 0-.694-.442-.899-1.053-1.032-.314-.064-.926-.175-1.228-.245-.908-.175-1.513-.653-1.513-1.532 0-.88.786-1.672 2.188-1.672 1.291 0 2.118.657 2.257 1.631h-.791c-.145-.583-.582-.938-1.484-.938-.744 0-1.373.332-1.373.962 0 .628.53.775 1.053.879.245.046.832.163 1.153.232v.001zm5.445-2.657v6.037h-.785v-6.037h.785zm5.708 0c1.909 0 2.881 1.2 2.881 3.018 0 1.819-.972 3.019-2.881 3.019h-2.327v-6.037h2.327zm0 5.343c1.513 0 2.084-1.066 2.084-2.33 0-1.265-.583-2.33-2.084-2.33h-1.541v4.66h1.54zm10.364.012v.693h-4.468v-6.048h4.329v.693h-3.544v1.871h2.857v.693h-2.857v2.098h3.683zm8.047-5.355v6.037h-1.239l-2.91-5.046h-.192v5.046h-.768v-6.037h1.239l2.91 5.046h.192v-5.046h.768zm8.356 4.323a2.332 2.332 0 01-2.468 1.824c-1.856 0-2.874-1.334-2.874-3.129 0-1.794 1.036-3.128 2.909-3.128a2.25 2.25 0 012.386 1.689h-.85a1.462 1.462 0 00-1.559-.996c-1.449 0-2.095 1.165-2.095 2.435s.64 2.436 2.083 2.436a1.554 1.554 0 001.641-1.13h.827zm7.425 1.032v.693h-4.47v-6.048h4.336v.693h-3.55v1.871h2.857v.693h-2.839v2.098h3.666zm6.139-2.698c.931.204 1.559.664 1.559 1.695 0 1.032-.774 1.795-2.328 1.795-1.454 0-2.403-.746-2.496-1.795h.792c.139.822.89 1.102 1.745 1.102.855 0 1.53-.39 1.53-1.083 0-.694-.447-.899-1.059-1.032-.314-.064-.919-.175-1.227-.245-.908-.175-1.508-.653-1.508-1.532 0-.88.786-1.672 2.188-1.672 1.292 0 2.118.657 2.258 1.631h-.791c-.151-.583-.582-.938-1.484-.938-.75 0-1.379.332-1.379.962 0 .628.535.775 1.059.879.239.046.82.163 1.141.232v.001zm-25.644-48.342h-86.77v2.161h86.77v-2.16zm-2.403-16.21l-2.397.962v13.203h4.795V5.605l-2.398-.961zm-81.968 0l-2.398.985v13.18h4.794V5.628l-2.396-.984z"/><path d="M111.528 4.644l-2.397.984v13.18h4.795V5.628l-2.398-.984zM54.674 0l-2.398.99v17.817h4.795V.99L54.674 0zm31.74 0l-2.397.99v17.817h4.8V.99L86.415 0zM42.117 8.646l-8.897-.64v10.802h17.795V7.87l-8.898.775zm56.802 0l-8.896-.64v10.802h17.794V7.87l-8.898.775zM70.546 4.86L58.34 3.985v14.823h24.42V3.805L70.546 4.859z"/></g><defs><clipPath id="clip0_3831_374"><path fill="#fff" transform="translate(.135)" d="M0 0h141v73H0z"/></clipPath></defs></svg>
